svgs/cco/discount.svg

<svg xmlns="http://www.w3.org/2000/svg" viewBox="0 0 16 16" class="symbol symbol-discount" aria-labelledby="title" role="img"><title id="title">discount icon</title><path d="M10.324 4.973a3.394 3.394 0 0 0-1.054-.832 2.828 2.828 0 0 0-1.3-.3 2.858 2.858 0 0 0-1.3.3 3.37 3.37 0 0 0-1.058.832 3.909 3.909 0 0 0-.705 1.243 4.681 4.681 0 0 0 0 3.056 3.919 3.919 0 0 0 .705 1.244 3.393 3.393 0 0 0 1.058.832 2.91 2.91 0 0 0 2.593 0 3.39 3.39 0 0 0 1.058-.832 4.165 4.165 0 0 0 .72-1.244 4.478 4.478 0 0 0 0-3.056 4.153 4.153 0 0 0-.717-1.243zm-.364 5.046h-3.8V9.011h1.2V6.4c-.023.041-.571.547-.571.547l-.815-.774 1.544-1.3h1.22v4.138H9.96zm1.165-8.278H8.953v1.206h2.173zM8.953 13.749h2.173v-1.2H8.953zM15.858 2.04a.608.608 0 0 0-.516-.3H13.61v1.207h1V4.1h1.35V2.335a.523.523 0 0 0-.102-.295zM3.765 11.61a2.433 2.433 0 0 0-.568-.762 2.723 2.723 0 0 0-.845-.512 2.816 2.816 0 0 0-1.035-.191v-4.8a2.819 2.819 0 0 0 1.035-.191 2.722 2.722 0 0 0 .848-.512 2.439 2.439 0 0 0 .568-.762 2.11 2.11 0 0 0 .214-.933h2.49V1.741H.657a.693.693 0 0 0-.481.176.542.542 0 0 0-.195.418v10.8a.557.557 0 0 0 .195.434.691.691 0 0 0 .481.177h5.812v-1.2h-2.49a2.11 2.11 0 0 0-.214-.936zm10.844-2.938h1.35V6.587h-1.35zm0 3.874h-1v1.2h1.732a.611.611 0 0 0 .538-.331.557.557 0 0 0 .08-.28v-1.979h-1.35z" data-name="Layer 1" role="presentation"/></svg>

<svg xmlns="http://www.w3.org/2000/svg" viewBox="0 0 16 16" aria-labelledby="title" role="img" class="symbol symbol-discount"><title id="title">discount icon</title><g id="Layer_1" data-name="Layer 1"><path d="M10.32,5a3.39,3.39,0,0,0-1.05-.83A2.83,2.83,0,0,0,8,3.84a2.86,2.86,0,0,0-1.3.3A3.37,3.37,0,0,0,5.62,5a3.91,3.91,0,0,0-.71,1.24,4.68,4.68,0,0,0,0,3.06,3.92,3.92,0,0,0,.71,1.24,3.39,3.39,0,0,0,1.06.83,2.91,2.91,0,0,0,2.59,0,3.39,3.39,0,0,0,1.06-.83A4.16,4.16,0,0,0,11,9.27a4.48,4.48,0,0,0,0-3.06A4.15,4.15,0,0,0,10.32,5ZM10,10H6.16V9h1.2V6.4s-.57.55-.57.55L6,6.17l1.54-1.3H8.74V9H10Zm1.17-8.28H9V2.95h2.17ZM9,13.75h2.17v-1.2H9ZM15.86,2a.61.61,0,0,0-.52-.3H13.61V2.95h1V4.1H16V2.34A.52.52,0,0,0,15.86,2ZM3.76,11.61a2.43,2.43,0,0,0-.57-.76,2.72,2.72,0,0,0-.85-.51,2.82,2.82,0,0,0-1-.19V5.35a2.82,2.82,0,0,0,1-.19,2.72,2.72,0,0,0,.85-.51,2.44,2.44,0,0,0,.57-.76A2.11,2.11,0,0,0,4,2.95H6.47V1.74H.66a.69.69,0,0,0-.48.18A.54.54,0,0,0,0,2.34v10.8a.56.56,0,0,0,.19.43.69.69,0,0,0,.48.18H6.47v-1.2H4A2.11,2.11,0,0,0,3.76,11.61ZM14.61,8.67H16V6.59H14.61Zm0,3.87h-1v1.2h1.73a.61.61,0,0,0,.54-.33.56.56,0,0,0,.08-.28v-2H14.61Z" role="presentation"/></g></svg>
